X:1
T:James Gibb editions
T:Psalm 140 (Becker) - Schütz
%%score [ ( 1 2 ) ( 3 4 ) ]
L:1/8
Q:1/4=98
M:3/2
K:C
V:1 treble nm="Soprano Alto"
V:2 treble 
V:3 bass nm="Tenor Bass"
V:4 bass 
V:1
"^Cornelius Becker\n(1561-1604)""^Psalm 140, SWV 245""^Heinrich Schütz\n(1585-1672)" C4 | %1
w: ~Vor|
w: be-|
 G2 A2 B4 c4 | d2 c2 B4 c4 | A2 G2 F2 E2 D4 | C8 :|[M:3/2] G4 | A2 F2 E4 D4 | G2 A2 B4 c4 | %8
w: bö- sen Men- schen|ret- te mich, o|Gott, mein treu- er Her-|re,|sie|den- ken Arg's in|ih- rem Sinn und|
w: hü- te mich ja|gnä- dig- lich, der|Fein- de Fre- vel weh-|re,||||
 B2 A2 d4 c4 | B2 A2 ^G4 E4 | G2 A2 B4 c4 | (d2 e2 d4) c8 |] %12
w: gehn mit ei- tel|Li- sten um, Krieg|wol- lwn sie er-|re\- * * gen.|
w: ||||
V:2
 G,4 | C2 C2 D4 E4 | G2 E2 D4 E4 | C2 C2 A,2 C4 B,2 | C8 :|[M:3/2] C4 | C2 C2 C4 B,4 | %7
 E2 ^F2 G4 G4 | G2 E2 A4 G4 | G2 E2 E4 B,4 | E2 ^F2 G4 E4 | G8 G8 |] %12
V:3
 E,4 | E,2 E,2 G,4 G,4 | D,2 G,2 G,4 G,4 | F,2 E,2 F,2 G,2 G,4 | G,8 :| %5
[M:3/2]"^2. Ich sprech zu dir: Du bist mein Gott, \nvernimm mein Bitt und Flehen!\nHerr, Herr, mein starke Hülf in Not, \ndu wirst ja bei mir stehen\nund nicht abweichen zu der Zeit, \nwenn wider mich sich hebt der Streit, \ndu wirst mein Haupt beschirmen.\n\n3. Ein Mensch, der Unglück richtet an, \nwird kein Glück hab'n auf Erden,\nein Mensch, der nichts denn freveln kann, \nder muß gestürzet werden.\nGott macht des Armen Sache gut, \nden Elenden nimmt er in Hut,\ndas weiß ich g'wiß fürwahre.\n\n4. Dafür werden dir dankbar sein \ndie G'rechten insgemeine\nund rühmen stets den Namen dein, \ndem Ehr gebührt alleine.\nDie Frommen werden allezeit, \nzu deinem Lob und Dienst bereit,\nvor deinem Antlitz bleiben." E,4 | %6
 F,2 A,2 G,4 G,4 | B,2 D2 D4 E4 | D2 C2 F4 E4 | D2 C2 B,4 G,4 | B,2 D2 D4 C4 | (B,2 C4 B,2) C8 |] %12
V:4
 C,4 | C,2 A,,2 G,,4 C,4 | B,,2 C,2 G,,4 C,4 | F,2 C,2 D,2 C,2 G,,4 | C,8 :|[M:3/2] C,4 | %6
 F,2 F,2 C,4 G,4 | E,2 D,2 G,4 C,4 | G,2 A,2 D,4 E,4 | G,2 A,2 E,4 E,4 | E,2 D,2 G,4 A,4 | %11
 (G,2 C,2 G,4) C,8 |] %12

